src/icons/outline/ai/dynamic-object-completion.svg

<svg width="24" height="24" viewBox="0 0 24 24" fill="none" xmlns="http://www.w3.org/2000/svg">
<g clip-path="url(#clip0_6362_1081)">
<path d="M11.5608 9.08686C11.8134 8.82534 12.2213 8.82518 12.4738 9.08686C12.7264 9.34883 12.7263 9.77207 12.4738 10.0341L2.10372 20.7988C1.97744 20.9297 1.81182 21.0008 1.64669 21.0009V20.9902C1.4815 20.9902 1.316 20.92 1.18966 20.789C0.937009 20.527 0.937123 20.1038 1.18966 19.8417L11.5608 9.08686Z" fill="#3C3B44"/>
<path d="M18.8801 2.02632C18.988 2.05935 19.0909 2.11765 19.1711 2.19331C19.2778 2.2941 19.346 2.44563 19.3654 2.59663C19.3848 2.75773 19.3454 2.90908 19.2678 3.03999C18.4515 4.37034 18.4802 6.1644 19.384 7.50483C19.4714 7.63582 19.5109 7.79706 19.5012 7.94819C19.4818 8.09924 19.4137 8.25044 19.3166 8.36128C19.2195 8.47205 19.0736 8.5432 18.9279 8.56343C18.7725 8.58358 18.6265 8.54246 18.5002 8.46186C17.1785 7.57506 15.4483 7.59544 14.1945 8.49214C14.078 8.58278 13.9223 8.62323 13.7766 8.61323C13.6308 8.59308 13.485 8.52255 13.3781 8.42183C13.2712 8.32104 13.2032 8.16969 13.1838 8.01851C13.1644 7.85735 13.2028 7.7061 13.2805 7.57515C14.0968 6.24477 14.0681 4.45075 13.1643 3.1103C13.0768 2.9793 13.0374 2.8181 13.0471 2.66694C13.0665 2.51592 13.1346 2.36468 13.2316 2.25386C13.3288 2.14304 13.4755 2.07186 13.6213 2.05171C13.7765 2.03175 13.9219 2.0728 14.0481 2.15327C15.3697 3.04005 17.1 3.01965 18.3537 2.123C18.4702 2.03243 18.6261 1.99194 18.7717 2.0019L18.8801 2.02632Z" fill="#3C3B44"/>
<path d="M22.8234 4.09175C22.849 4.10305 22.8733 4.11843 22.8928 4.13862C22.9316 4.17892 22.9611 4.22956 22.9611 4.28999C22.9611 4.34028 22.9511 4.40087 22.9221 4.45112C22.6112 4.94496 22.621 5.62013 22.9611 6.12397C22.9902 6.16425 23.0002 6.22471 23.0002 6.28511C22.9905 6.33547 22.9707 6.39616 22.9318 6.43647C22.893 6.47668 22.8445 6.50671 22.7863 6.50679C22.7379 6.51684 22.6796 6.49686 22.6311 6.46675C22.1356 6.13427 21.4843 6.14427 21.0178 6.47651C20.9789 6.50673 20.9198 6.51751 20.8615 6.51753C20.813 6.50744 20.7549 6.48647 20.716 6.44624C20.6772 6.40595 20.6477 6.35528 20.6477 6.29487C20.6477 6.24457 20.6577 6.18398 20.6867 6.13374C20.9976 5.63991 20.9878 4.96475 20.6477 4.46089C20.6186 4.42059 20.6096 4.36011 20.6096 4.29976C20.6193 4.24939 20.6381 4.18868 20.677 4.14839C20.7157 4.10822 20.7644 4.07823 20.8225 4.07808L20.8674 4.08003C20.9181 4.08989 20.9787 4.11811 20.9787 4.11811H20.969C21.4743 4.4506 22.1255 4.44092 22.592 4.10835C22.6309 4.07819 22.689 4.06832 22.7473 4.06831L22.8234 4.09175Z" fill="#3C3B44"/>
<path d="M11.7385 4.48823C11.7542 4.49592 11.7688 4.50634 11.7834 4.52144C11.8125 4.5516 11.8322 4.58184 11.8322 4.62202C11.8322 4.6623 11.8223 4.70312 11.8029 4.73335C11.5991 5.06581 11.609 5.51906 11.8322 5.85151C11.8613 5.88174 11.8615 5.92256 11.8615 5.96284C11.8518 6.00305 11.8418 6.03325 11.8127 6.06343C11.7837 6.09351 11.7547 6.11409 11.716 6.11421C11.6772 6.11421 11.6378 6.10406 11.6086 6.08394C11.2782 5.85224 10.8415 5.86239 10.5305 6.08394C10.5014 6.11414 10.4619 6.11421 10.4231 6.11421C10.3843 6.10416 10.3555 6.09348 10.3264 6.06343C10.2972 6.03322 10.2776 6.00309 10.2775 5.96284C10.2776 5.92253 10.2874 5.88174 10.3068 5.85151C10.5106 5.51906 10.5008 5.06577 10.2775 4.73335C10.2484 4.70311 10.2483 4.66234 10.2483 4.62202C10.2579 4.58183 10.268 4.55161 10.2971 4.52144C10.3261 4.49138 10.3551 4.47073 10.3938 4.47065L10.4621 4.48628C10.484 4.49381 10.5012 4.50093 10.5012 4.50093C10.8316 4.73263 11.2683 4.72254 11.5793 4.50093C11.6085 4.47077 11.6479 4.47065 11.6867 4.47065L11.7385 4.48823Z" fill="#3C3B44"/>
</g>
<defs>
<clipPath id="clip0_6362_1081">
<rect width="24" height="24" fill="white"/>
</clipPath>
</defs>
</svg>

<svg xmlns="http://www.w3.org/2000/svg" width="24" height="24" fill="none" viewBox="0 0 24 24"><g fill="currentColor" clip-path="url(#a)"><path d="M11.56 9.087a.63.63 0 0 1 .914 0 .687.687 0 0 1 0 .947L2.104 20.8a.64.64 0 0 1-.457.202v-.01a.64.64 0 0 1-.457-.202.687.687 0 0 1 0-.947zm7.32-7.061c.108.033.21.092.291.167a.7.7 0 0 1 .097.847c-.816 1.33-.788 3.124.116 4.465a.73.73 0 0 1 .117.443.8.8 0 0 1-.184.413.64.64 0 0 1-.39.202.64.64 0 0 1-.427-.101c-1.322-.887-3.052-.867-4.305.03a.62.62 0 0 1-.418.121.75.75 0 0 1-.399-.191.696.696 0 0 1-.098-.847c.817-1.33.788-3.124-.116-4.465a.73.73 0 0 1-.117-.443.8.8 0 0 1 .185-.413.634.634 0 0 1 .816-.1c1.322.886 3.052.866 4.306-.031a.62.62 0 0 1 .418-.121zm3.943 2.066q.04.016.07.047c.039.04.068.09.068.151 0 .05-.01.11-.039.161a1.56 1.56 0 0 0 .04 1.673c.028.04.038.1.038.161a.3.3 0 0 1-.068.151.2.2 0 0 1-.146.07c-.048.01-.106-.01-.155-.04a1.43 1.43 0 0 0-1.613.01.26.26 0 0 1-.157.042.3.3 0 0 1-.145-.072.22.22 0 0 1-.068-.151c0-.05.01-.111.039-.161a1.56 1.56 0 0 0-.04-1.673.3.3 0 0 1-.037-.161.3.3 0 0 1 .067-.152.2.2 0 0 1 .146-.07l.044.002c.051.01.112.038.112.038h-.01a1.44 1.44 0 0 0 1.623-.01.26.26 0 0 1 .155-.04zm-11.084.396q.023.011.044.033c.03.03.05.06.05.101 0 .04-.01.081-.03.111-.204.333-.194.786.03 1.119.028.03.028.07.028.11a.2.2 0 0 1-.048.101c-.03.03-.058.051-.097.051a.2.2 0 0 1-.107-.03.94.94 0 0 0-1.078 0c-.03.03-.07.03-.108.03a.2.2 0 0 1-.097-.05c-.029-.03-.048-.06-.049-.101 0-.04.01-.081.03-.111a1.06 1.06 0 0 0-.03-1.119c-.029-.03-.029-.07-.029-.111a.2.2 0 0 1 .05-.1c.028-.03.057-.051.096-.051l.068.015.04.015a.94.94 0 0 0 1.077 0c.03-.03.069-.03.108-.03z"/></g><defs><clipPath id="a"><path fill="currentColor" d="M0 0h24v24H0z"/></clipPath></defs></svg>
